X: 24111
T: Longacre, The
R: reel
M: 4/4
K: Amixolydian
|:A2eA fdec|Ae e/e/e dBGB|A2eA fdec|Ae e/e/e dBGB:|
|:A2ed dec2|edde c2 e2:|

